X: 98
T:Minuet. JaW.098
M:3/4
L:1/8
Q:1/4=120
C:"A Good One"
S:James Winder Ms, Lancashire, 1835-41
R:Minuet
O:England
A:Wyresdale,Lancashire
H:1/8
Z:vmp.Chris Partington, Aug 2004
K:G
e3f^d2|e2g2f2|e2^d2e2|fefgf2|!
"="B4A2|G2e2G2|F2e2^d2|e6:|!
|:B2BcBc|d3cB2|ABcBAG|"="F3ED2|!
d2dcB2|edefgG|B2cBAB|G6:|!
|:g2g2b2|f2f2a2|edegfe|"="^d3^cB2|!
e4B2|A2G2F2|E2e2^d2|e6:|]
